symbols/web/auto_awesome/materialsymbolsoutlined/auto_awesome_wght500grad200fill1_20px.svg

<svg xmlns="http://www.w3.org/2000/svg" height="20" width="20"><path d="m16.333 8.125-1.312-2.833-2.792-1.313 2.792-1.291 1.312-2.834 1.313 2.834 2.792 1.291-2.792 1.313Zm0 12.021-1.312-2.813-2.792-1.291 2.792-1.313 1.312-2.833 1.313 2.833 2.792 1.313-2.792 1.291Zm-8.625-1.979-2.541-5.605L-.417 10l5.584-2.542 2.541-5.604 2.563 5.604L15.833 10l-5.562 2.562Z"/></svg>

<svg xmlns="http://www.w3.org/2000/svg" height="20" width="20"><path d="M16.333 8.125 15.021 5.292 12.229 3.979 15.021 2.688 16.333 -0.146 17.646 2.688 20.438 3.979 17.646 5.292ZM16.333 20.146 15.021 17.333 12.229 16.042 15.021 14.729 16.333 11.896 17.646 14.729 20.438 16.042 17.646 17.333ZM7.708 18.167 5.167 12.562 -0.417 10 5.167 7.458 7.708 1.854 10.271 7.458 15.833 10 10.271 12.562Z"/></svg>
